src/components/00-materials/images-raw/MPV.svg

<svg width="96" height="96" viewBox="0 0 96 96" fill="none" xmlns="http://www.w3.org/2000/svg">
<path d="M71.79 73.4198C76.8434 73.4198 80.94 69.2606 80.94 64.1298C80.94 58.9991 76.8434 54.8398 71.79 54.8398C66.7366 54.8398 62.64 58.9991 62.64 64.1298C62.64 69.2606 66.7366 73.4198 71.79 73.4198Z" stroke="#00008F" stroke-width="2" stroke-linecap="round" stroke-linejoin="round"/>
<path d="M71.79 68.3502C74.082 68.3502 75.94 66.4608 75.94 64.1302C75.94 61.7995 74.082 59.9102 71.79 59.9102C69.498 59.9102 67.64 61.7995 67.64 64.1302C67.64 66.4608 69.498 68.3502 71.79 68.3502Z" stroke="#00008F" stroke-width="2" stroke-linecap="round" stroke-linejoin="round"/>
<path d="M20.8737 73.5408C25.9271 73.524 30.0099 69.3512 29.9929 64.2205C29.9759 59.0898 25.8655 54.9441 20.8121 54.9609C15.7587 54.9776 11.676 59.1505 11.693 64.2812C11.71 69.4119 15.8204 73.5575 20.8737 73.5408Z" stroke="#00008F" stroke-width="2" stroke-linecap="round" stroke-linejoin="round"/>
<path d="M20.8569 68.4706C23.1489 68.463 25.0006 66.5675 24.9929 64.2369C24.9852 61.9063 23.1209 60.0231 20.8289 60.0307C18.537 60.0383 16.6852 61.9338 16.6929 64.2644C16.7007 66.595 18.565 68.4782 20.8569 68.4706Z" stroke="#00008F" stroke-width="2" stroke-linecap="round" stroke-linejoin="round"/>
<path d="M62.6 65.1701L29.92 65.34M78.65 58.0001H90.32C91.0282 58.0027 91.7069 58.2845 92.2086 58.7844C92.7104 59.2842 92.9947 59.9618 93 60.6701V62.5701C92.9974 63.281 92.7145 63.9621 92.2128 64.4658C91.711 64.9694 91.0309 65.2548 90.32 65.2601H80.87M27.68 58.0901L64.71 57.9001M11.69 65.4001H5.69C4.98266 65.4027 4.30294 65.1257 3.79903 64.6293C3.29513 64.1328 3.00791 63.4574 3 62.7501V60.8501C2.99998 60.1401 3.28064 59.4589 3.7808 58.955C4.28095 58.4511 4.96004 58.1653 5.67 58.1601M5.67 58.1601H13.75M5.67 58.1601V43.2601C5.66436 40.8494 6.32912 38.4847 7.59 36.4301C8.99 34.1501 11.1 30.2401 13.79 28.0801C22.84 20.7801 36.99 21.5801 43.5 21.5801C56.57 22.2801 65.16 24.8401 71.16 27.8401C79.74 33.2601 84.41 40.7501 86.74 43.4701C92.18 49.8201 90.31 57.8201 90.31 57.8201" stroke="#00008F" stroke-width="2" stroke-linecap="round" stroke-linejoin="round"/>
<path d="M6.55999 41.81L48.41 41.64L48.37 29.75L12.28 29.89M84.83 41.65H54.7M54.7 41.65V29.75H73.39M54.7 41.65V57.99M25.41 29.85L25.44 41.74M11.1 41.8C11.1 46.31 8.68999 49.98 5.67999 49.99M89.37 50.73H85.12C82.95 50.73 81.2 53.17 81.2 55.07V58" stroke="#00008F" stroke-width="2" stroke-linecap="round" stroke-linejoin="round"/>
</svg>

<svg width="96" height="96" viewBox="0 0 96 96" fill="none" xmlns="http://www.w3.org/2000/svg"><path d="M71.79 73.42c5.053 0 9.15-4.16 9.15-9.29 0-5.13-4.097-9.29-9.15-9.29s-9.15 4.16-9.15 9.29c0 5.13 4.097 9.29 9.15 9.29z" stroke="#00008F" stroke-width="2" stroke-linecap="round" stroke-linejoin="round"/><path d="M71.79 68.35c2.292 0 4.15-1.89 4.15-4.22s-1.858-4.22-4.15-4.22c-2.292 0-4.15 1.89-4.15 4.22s1.858 4.22 4.15 4.22zM20.874 73.54c5.053-.016 9.136-4.189 9.119-9.32-.017-5.13-4.127-9.276-9.18-9.26-5.054.018-9.137 4.19-9.12 9.321.017 5.13 4.127 9.276 9.18 9.26z" stroke="#00008F" stroke-width="2" stroke-linecap="round" stroke-linejoin="round"/><path d="M20.857 68.47c2.292-.007 4.144-1.903 4.136-4.233-.008-2.33-1.872-4.214-4.164-4.206-2.292.007-4.144 1.903-4.136 4.233.008 2.331 1.872 4.214 4.164 4.207zM62.6 65.17l-32.68.17M78.65 58h11.67A2.69 2.69 0 0193 60.67v1.9a2.7 2.7 0 01-2.68 2.69h-9.45m-53.19-7.17l37.03-.19m-53.02 7.5h-6A2.68 2.68 0 013 62.75v-1.9a2.69 2.69 0 012.67-2.69m0 0h8.08m-8.08 0v-14.9a13 13 0 011.92-6.83c1.4-2.28 3.51-6.19 6.2-8.35 9.05-7.3 23.2-6.5 29.71-6.5 13.07.7 21.66 3.26 27.66 6.26 8.58 5.42 13.25 12.91 15.58 15.63 5.44 6.35 3.57 14.35 3.57 14.35" stroke="#00008F" stroke-width="2" stroke-linecap="round" stroke-linejoin="round"/><path d="M6.56 41.81l41.85-.17-.04-11.89-36.09.14m72.55 11.76H54.7m0 0v-11.9h18.69M54.7 41.65v16.34M25.41 29.85l.03 11.89m-14.34.06c0 4.51-2.41 8.18-5.42 8.19m83.69.74h-4.25c-2.17 0-3.92 2.44-3.92 4.34V58" stroke="#00008F" stroke-width="2" stroke-linecap="round" stroke-linejoin="round"/></svg>
